public/images/type-icons/ice.svg

<svg fill="none" height="512" viewBox="0 0 512 512" width="512" xmlns="http://www.w3.org/2000/svg"><g clip-rule="evenodd" fill="#fff" fill-rule="evenodd"><path d="m384.304 39.0418 1.575 138.3502-120.67 57.927-1.488-130.629z"/><path d="m505.269 257.047-119.455 68.327-119.526-68.435 119.464-62.752z"/><path d="m245.04 257.047-119.455 68.327-119.52639-68.435 119.46439-62.752z"/><path d="m124.243 38.4753 123.986 61.4057-3.17 133.816-117.066-57.978z"/><path d="m387.678 473.525-123.986-61.406 3.17-133.817 117.066 57.979z"/><path d="m128.525 474.77-1.576-138.35 120.671-57.927 1.488 130.628z"/></g></svg>

<svg width="512" height="512" viewBox="0 0 512 512" fill="none" xmlns="http://www.w3.org/2000/svg">
<path fill-rule="evenodd" clip-rule="evenodd" d="M384.304 39.0418L385.879 177.392L265.209 235.319L263.721 104.69L384.304 39.0418Z" fill="white"/>
<path fill-rule="evenodd" clip-rule="evenodd" d="M505.269 257.047L385.814 325.374L266.288 256.939L385.752 194.187L505.269 257.047Z" fill="white"/>
<path fill-rule="evenodd" clip-rule="evenodd" d="M245.04 257.047L125.585 325.374L6.05861 256.939L125.523 194.187L245.04 257.047Z" fill="white"/>
<path fill-rule="evenodd" clip-rule="evenodd" d="M124.243 38.4753L248.229 99.881L245.059 233.697L127.993 175.719L124.243 38.4753Z" fill="white"/>
<path fill-rule="evenodd" clip-rule="evenodd" d="M387.678 473.525L263.692 412.119L266.862 278.302L383.928 336.281L387.678 473.525Z" fill="white"/>
<path fill-rule="evenodd" clip-rule="evenodd" d="M128.525 474.77L126.949 336.42L247.62 278.493L249.108 409.121L128.525 474.77Z" fill="white"/>
</svg>
